X: 2086
Q: "Strathspey."
M: C
L: 1/16
K: C
uc2 |\
vGE3E3uc vGE3E3uc | vGE3c3uE D6 uc2 |\
vGE3E3uG vc3vdue3ud | c3AG3E D6 ::\
ue2 |\
vc2(ef g3)ue cg3ea3 | vgc3g3ue d4(d3e) |\
[1 c2(ef g3)ue vcg3e3ud | vcA3 vc3uE D6 ue2 :|
[2 vg3veuf3ud ve3vcud3uB | vcA3vG3uE vD6 |:\
uE2 |\
vC3vGuE3uc vG3vcuE3uc | C3GE3c {FE}D4 (D3E) |\
(uef) |\
vg3vcue3uc gc3fa3 |
vg3veug3ue d4 (d2ef) |\
g3ce3ud vc3vdue3ud | cA3G3E D6 (ef) |\
gc3e3c gc3fa3 | g3cg3e d4 (d2cd) |\
e3cd3B c3AG3E | Fd3 Ec3 D6 |]


